img/icon-html.svg

<svg fill="none" height="36" viewBox="0 0 33 36" width="33" xmlns="http://www.w3.org/2000/svg"><g clip-rule="evenodd" fill-rule="evenodd"><path d="m16.5053.484375h-15.788503l3.099073 31.286025 12.68943 3.6292 12.6788-3.6292 3.2003-31.286025" fill="#e4492f"/><path d="m4.33063 31.3753 12.16447 3.4214 12.1539-3.4214 3.1095-30.389542h-30.41613zm12.17427 4.6246-13.20384-3.7175-3.30106-32.2824h33l-3.2909 32.2824z" fill="#131741"/><path d="m26.6955 29.9652 2.6851-27.16442h-13.0017v29.87602" fill="#e96d31"/><path d="m21.024 23.1225-4.6434 1.8142-4.533-1.41v-3.0169l-4.23982-.1083.51475 5.9358 8.15637 2.6127 8.3387-2.4158 1.0401-11.8813h-14.7388l-.414-4.0133h15.4656l.212-3.93452h-19.89734l1.1408 11.77352h13.60804" fill="#fff"/></g></svg>

<svg fill="none" height="36" width="33" xmlns="http://www.w3.org/2000/svg"><g clip-rule="evenodd" fill-rule="evenodd"><path d="M16.505.484H.717L3.816 31.77l12.69 3.63 12.678-3.63 3.2-31.286" fill="#e4492f"/><path d="M4.33 31.375l12.165 3.422 12.154-3.422 3.11-30.39H1.341zM16.506 36L3.3 32.282 0 0h33l-3.29 32.282z" fill="#131741"/><path d="M26.695 29.965l2.686-27.164H16.379v29.876" fill="#e96d31"/><path d="M21.024 23.122l-4.643 1.815-4.533-1.41V20.51l-4.24-.109.515 5.936 8.156 2.613 8.339-2.416 1.04-11.881h-14.74l-.413-4.013H25.97l.213-3.935H6.285L7.426 18.48h13.608" fill="#fff"/></g></svg>
